!!!!SEGMENT: pl-sa--l-1643--046_anonim--salve-regina-a-8.krn
!!!cenid: 16xx:1404
!!!COM: Anonim
!!!COM-rismID: pe30004985
!!!CDT:
!!!CNT:
!!!OTL: Salve Regina a 8
!!!PDT:
!!!AGN: Sacred
!!!SMS-siglum: PL-SA
!!!SMS-shelfmark: L 1643
!!!SMS-shelfwork: 042 W
!!!SMS-variant:
!!!SMS-altvar:
!!!NIFC-rismSourceID: 1001064708
!!!NIFC-rismChildID: 1001064708
!!!NIFC-islandoraID:
!!!URL-pdf-islandora:
!!!URL-scan:
!!!ONB-nifc: UWAGA: 8 ksiąg. Primi chori: 1mus Cantus (77-78), C 2dus (77-78), C 3tius (75-76), Bassus (72-73); Secondi chori: Primus Cantus (72-73), C 2dus (75-76), Altus (73), Bassus (73-74). UWAGA: Nie dodawać pustych linii, chyba że w rękopisie pojawiają się dodatkowe oznaczenia dotyczące pełnej obsady (a 4, a 8 itp.)
!!!AIN: 8 empty
!!!key:
**kern	**text	**kern	**text	**kern	**text	**kern	**text	**kern	**text	**kern	**text	**kern	**text	**kern	**text
*part8	*part8	*part7	*part7	*part6	*part6	*part5	*part5	*part4	*part4	*part3	*part3	*part2	*part2	*part1	*part1
*staff8	*staff8	*staff7	*staff7	*staff6	*staff6	*staff5	*staff5	*staff4	*staff4	*staff3	*staff3	*staff2	*staff2	*staff1	*staff1
*group2	*	*group2	*	*group2	*	*group2	*	*group1	*	*group1	*	*group1	*	*group1	*
*Iempty	*	*Iempty	*	*Iempty	*	*Iempty	*	*Iempty	*	*Iempty	*	*Iempty	*	*Iempty	*
*I"Baſsus 2di Chori	*	*I"Altus secundi Chori.	*	*I"Cantus 2dus Secundi Chori.	*	*I"Primus Cantus 2di Chori	*	*I"Bassus Primi Chori.	*	*I"Cantus 3tius Primi Chori	*	*I"Cantus 2dus Primi Chori.	*	*I"1m(us) Cantus Primi Chori	*
*I'Coro 2 B	*	*I'Coro 2 A	*	*I'Coro 2 S 2	*	*I'Coro 2 S 1	*	*I'Coro 1 B	*	*I'Coro 1 S 3	*	*I'Coro 1 S 2	*	*I'Coro 1 S 1	*
*clefC3	*	*clefC2	*	*clefC1	*	*clefG2	*	*clefC3	*	*clefC2	*	*clefC1	*	*clefG2	*
*k[b-]	*	*k[b-]	*	*k[b-]	*	*k[b-]	*	*k[b-]	*	*k[b-]	*	*k[b-]	*	*k[b-]	*
*g:	*	*g:	*	*g:	*	*g:	*	*g:	*	*g:	*	*g:	*	*g:	*
*M2/1	*	*M2/1	*	*M2/1	*	*M2/1	*	*M2/1	*	*M2/1	*	*M2/1	*	*M2/1	*
*met(C|)	*	*met(C|)	*	*met(C|)	*	*met(C|)	*	*met(C|)	*	*met(C|)	*	*met(C|)	*	*met(C|)	*
=1-	=1-	=1-	=1-	=1-	=1-	=1-	=1-	=1-	=1-	=1-	=1-	=1-	=1-	=1-	=1-
!LO:TX:a:t=Salue Re\ngina A 8 V.	!	!LO:TX:a:t=Salue\nRegina\nA 8 V.	!	!LO:TX:a:t=Salue\nRegina\nA 8 V.	!	!LO:TX:a:t=Salue\nRegina\nA 8 V.	!	!LO:TX:a:t=Salue Re\ngina A 8 V.	!	!LO:TX:a:t=Salue\nRegina\nA 8 V.	!	!LO:TX:a:t=Salue\nRegina\nA 8. V	!	!LO:TX:a:t=Salue Re&colon;\ngina A 8.	!
2G/	Vi-	2d/	Vi-	2b-\	Vi-	2dd\	Vi-	2g\	Vi-	2g\	Vi-	2b-\	Vi-	2dd\	Vi-
4d\	-ta	4d/	-ta	4dd\	-ta	4dd\	-ta	4d\	-ta	4a\	-ta	4a\	-ta	4dd\	-ta
4G/	dul-	4d/	dul-	4b-\	dul-	4b-/	dul-	4g\	dul-	4g\	dul-	4dd\	dul-	4dd\	dul-
2c/	-ce-	2.g\	-ce-	4g/	-ce-	2cc\	-ce-	2c/	-ce-	2g\	-ce-	2cc\	-ce-	2ee-X\	-ce-
.	.	.	.	4a\	.	.	.	.	.	.	.	.	.	.	.
2g\	-do	.	.	2b-\	-do	2dd\	-do	4G/	-do	4g\	-do	4b-,<\	-do	4dd\	-do
.	.	4d/	-do	.	.	.	.	4G/	Vi-	4b-\	Vi-	4dd\	vi-	4dd\	vi-
=2-	=2-	=2-	=2-	=2-	=2-	=2-	=2-	=2-	=2-	=2-	=2-	=2-	=2-	=2-	=2-
1r	.	1r	.	1r	.	1r	.	4d\	-ta	4a\	-ta	4dd\	-ta	4ff\	-ta
*	*	*	*	*	*	*	*	*	*	*	*	*custos:b-	*	*	*
.	.	.	.	.	.	.	.	4B-/	dul-	4b-\	dul-	4dd\	dul-	4ff\	dul-
!	!	!	!	!	!	!	!	!	!	!	!	!LO:LB:g=original	!	!	!
.	.	.	.	.	.	.	.	2e-X\	-ce-	2g\	-ce-	4b-\	-ce-	2gg\	-ce-
.	.	.	.	.	.	.	.	.	.	.	.	4cc\	.	.	.
!	!	!	!	!	!	!	!	!	!	!	!	!	!	!LO:TX:b:t=P:problem=# below	!
4r	.	4r	.	4r	.	4r	.	2d\	-do	2a\	-do	2dd\	-do	2ff#X\	-do
2B-/	et	2f\	et	2b-\	et	2dd\	et	.	.	.	.	.	.	.	.
.	.	.	.	.	.	.	.	2r	.	2r	.	2r	.	2r	.
4B-/	spes	4f\	spes	4b-\	spes	4dd\	spes	.	.	.	.	.	.	.	.
=3-	=3-	=3-	=3-	=3-	=3-	=3-	=3-	=3-	=3-	=3-	=3-	=3-	=3-	=3-	=3-
4e-X\	no-	4g\	no-	4b-\	no-	4ee-X\	no-	1r	.	1r	.	1r	.	1r	.
4B-/	-stra	4f\	-stra	2b-\	-stra	4dd\	-stra	.	.	.	.	.	.	.	.
2F/	sal-	2f\	sal-	.	.	2cc\	sal-	.	.	.	.	.	.	.	.
.	.	.	.	4a\	sal-	.	.	.	.	.	.	.	.	.	.
4B-/	-ue	4f\	-ue	4b-\	-ue	4dd\	-ue	4r	.	4r	.	4r	.	4r	.
4r	.	4r	.	4r	.	4r	.	2B-/	et	2b-\	et	2dd\	et	2ffny\	et
2r	.	2r	.	2r	.	2r	.	.	.	.	.	.	.	.	.
.	.	.	.	.	.	.	.	4B-/	spes	8b-\L	spes	4dd\	spes	4ff\	spes
.	.	.	.	.	.	.	.	.	.	8a\J	.	.	.	.	.
=4-	=4-	=4-	=4-	=4-	=4-	=4-	=4-	=4-	=4-	=4-	=4-	=4-	=4-	=4-	=4-
1r	.	1r	.	1r	.	1r	.	4c/	no-	4g\	no-	4.cc\	no-	4ee-X\	no-
.	.	.	.	.	.	.	.	4c/	-stra	4g\	-stra	.	.	4ee-\	-stra
.	.	.	.	.	.	.	.	.	.	.	.	8b-\	-stra	.	.
!	!	!	!	!	!	!	!	!	!	!LO:TX:b:t=P:problem=# below	!	!	!	!	!
.	.	.	.	.	.	.	.	2d\	sal-	2f#X\	Sal-	2a\	sal-	2dd\	sal-
!	!	!	!	!	!	!	!	!	!	!	!	!LO:N:acc=#	!	!	!
!	!	!	!	!	!	!	!	!	!	!	!	!LO:TX:b:t=P:problem=# below	!	!	!
2r	.	2r	.	2r	.	2r	.	2G/	-ue	2g\	-ue	2bn\	-ue	2dd\	-ue
*	*	*	*	*	*	*	*	*	*	*	*	*	*	*custos:dd	*
1G/	et	1d/	et	1b-\	et	1dd\	et	1g\	et	1g\	et	1dd\	et	1dd\	et
!	!	!	!	!	!	!	!	!	!	!	!	!	!	!LO:LB:g=original	!
=5-	=5-	=5-	=5-	=5-	=5-	=5-	=5-	=5-	=5-	=5-	=5-	=5-	=5-	=5-	=5-
*	*	*	*	*	*	*	*	*custos:c	*	*	*	*	*	*	*
2G/	spes	2g\	spes	2b-\	spes	2dd\	spes	2g\	spes	2g\	spes	2b-y\	spes	2dd\	spes
!	!	!	!	!	!	!	!	!LO:LB:g=original	!	!	!	!	!	!	!
2c/	no-	2.g\	no-	4g/	no-	2cc\	no-	2c/	no-	2g\	n(o-	2cc\	no-	4eeny\	no-
.	.	.	.	4a\	.	.	.	.	.	.	.	.	.	4ff\	.
8G/L	-stra	.	.	2b-\	-stra	2dd\	-stra	2g\	-stra	2g\	-st)ra	2b-\	-stra	2.gg\	-stra
8A/	.	.	.	.	.	.	.	.	.	.	.	.	.	.	.
8B-/	.	4d/	-stra	.	.	.	.	.	.	.	.	.	.	.	.
8c/J	.	.	.	.	.	.	.	.	.	.	.	.	.	.	.
=6-	=6-	=6-	=6-	=6-	=6-	=6-	=6-	=6-	=6-	=6-	=6-	=6-	=6-	=6-	=6-
1d	sal-	1d	sal-	1a	sal-	1dd	sal-	1d	sal-	1a	Sal-	1dd	sal-	.	.
.	.	.	.	.	.	.	.	.	.	.	.	.	.	8ff\L	.
.	.	.	.	.	.	.	.	.	.	.	.	.	.	8ee\J	.
!	!	!	!	!	!	!	!	!	!	!	!	!	!	!LO:TX:b:t=P:problem=# below	!
.	.	.	.	.	.	.	.	.	.	.	.	.	.	2ff#X\	sal-
!	!	!	!	!LO:N:acc=#	!	!	!	!	!	!	!	!	!	!	!
1Gl;;	-ue.	1dl;;	-ue.	1bnl;;	-ue.	1ddl;;	-ue	1gl;;	-ue	1gl;;	-ue.	1ddl;;	-ue	1ggl;;	-ue
!LO:LB:g=original	!	!LO:LB:g=original	!	!LO:LB:g=original	!	!LO:LB:g=original	!	!	!	!LO:LB:g=original	!	!	!	!	!
=7||	=7||	=7||	=7||	=7||	=7||	=7||	=7||	=7||	=7||	=7||	=7||	=7||	=7||	=7||	=7||
*M2/1	*	*M2/1	*	*M2/1	*	*M2/1	*	*M2/1	*	*M2/1	*	*M2/1	*	*M2/1	*
*met(C|)	*	*met(C|)	*	*met(C|)	*	*met(C|)	*	*met(C|)	*	*met(C|)	*	*met(C|)	*	*met(C|)	*
0r	.	0r	.	0r	.	0r	.	2f\	Ad	2a\	Ad	2cc\	Ad	2ff\	Ad
.	.	.	.	.	.	.	.	4c/	te	4g\	te	4cc\	te	4ee\	te
.	.	.	.	.	.	.	.	2d\	sus-	2f\	sus-	2a\	sus-	2dd\	sus-
!	!	!	!	!	!	!	!	!	!	!	!	!	!	!LO:TX:b:t=P:problem=# below	!
.	.	.	.	.	.	.	.	4A/	-pi-	4a\	-pi-	4a\	-pi-	4cc#X\	-pi-
.	.	.	.	.	.	.	.	2B-/	-ra-	4f\	-ra-	2dd\	-ra-	2dd\	-ra-
.	.	.	.	.	.	.	.	.	.	4g\	.	.	.	.	.
=8-	=8-	=8-	=8-	=8-	=8-	=8-	=8-	=8-	=8-	=8-	=8-	=8-	=8-	=8-	=8-
*	*	*	*	*	*	*	*	*	*	*	*	*custos:cc	*	*	*
!	!	!	!	!	!	!	!	!	!	!	!	!LO:TX:b:t=P:problem=# below	!	!	!
4r	.	4r	.	4r	.	4r	.	2A/	-mus	2a\	mus	2cc#X\	-mus	2ee\	-mus
!	!	!	!	!LO:TX:b:t=P:problem=# below	!	!	!	!	!	!	!	!	!	!	!
2A/	Ad	2a\	Ad	2cc#X\	Ad	2ee\	Ad	.	.	.	.	.	.	.	.
!	!	!	!	!	!	!	!	!	!	!	!	!LO:LB:g=original	!	!	!
.	.	.	.	.	.	.	.	2r	.	2r	.	2r	.	2r	.
4d\	te	4a\	te	4dd\	te	4ff\	te	.	.	.	.	.	.	.	.
2.d\	sus-	2a\	sus-	2.dd\	sus-	2.ff\	sus-	1r	.	1r	.	1r	.	1r	.
.	.	2.f\	-pi-	.	.	.	.	.	.	.	.	.	.	.	.
!	!	!	!	!LO:TX:b:t=P:problem=# below	!	!	!	!	!	!	!	!	!	!	!
4A/	-pi-	.	.	4cc#X\	-pi-	4ee\	-pi-	.	.	.	.	.	.	.	.
=9-	=9-	=9-	=9-	=9-	=9-	=9-	=9-	=9-	=9-	=9-	=9-	=9-	=9-	=9-	=9-
2B-/	-ra-	.	.	2dd\	-ra-	2dd\	-ra-	2r	.	2r	.	2r	.	2r	.
.	.	4g\	-ra-	.	.	.	.	.	.	.	.	.	.	.	.
!	!	!	!	!LO:TX:b:t=P:problem=# below	!	!	!	!	!	!	!	!	!	!	!
2A/	-mus	2a\	-mus	2cc#X\	-mus	2ee\	-mus	4r	.	4r	.	4r	.	4r	.
.	.	.	.	.	.	.	.	4c/	ge-	4g\	ge-	4ccny\	ge-	4ee\	ge-
0r	.	0r	.	0r	.	0r	.	2f\	-men-	2a\	-men-	2cc\	-men-	2ff\	-men-
.	.	.	.	.	.	.	.	4c/	-tes	4g\	-tes	4cc\	-tes	4ee\	-tes
.	.	.	.	.	.	.	.	4c/	et	4g\	et	4cc\	et	4gg\	et
=10-	=10-	=10-	=10-	=10-	=10-	=10-	=10-	=10-	=10-	=10-	=10-	=10-	=10-	=10-	=10-
.	.	.	.	.	.	.	.	2.d\	flen-	4a\	flen-	2.a\	flen-	2.ff\	flen-
.	.	.	.	.	.	.	.	.	.	4g\	.	.	.	.	.
.	.	.	.	.	.	.	.	.	.	4f\	.	.	.	.	.
*	*	*	*	*	*	*	*	*	*	*	*	*	*	*custos:dd	*
.	.	.	.	.	.	.	.	4c/	.	4e/	.	8b-\L	.	4ee\	.
.	.	.	.	.	.	.	.	.	.	.	.	8cc\J	.	.	.
!	!	!	!	!	!	!	!	!	!	!	!	!	!	!LO:LB:g=original	!
2r	.	2r	.	2r	.	2r	.	2B-/	.	4f\	.	2dd\	.	2dd\	.
.	.	.	.	.	.	.	.	.	.	4g\	.	.	.	.	.
*	*	*	*	*	*	*	*	*custos:d	*	*	*	*	*	*	*
!	!	!	!	!	!	!	!	!	!	!	!	!LO:TX:b:t=P:problem=# below	!	!	!
4r	.	4r	.	4r	.	4r	.	2A/	-tes	2a\	-tes	2cc#X\	-tes	2ee\	-tes
4A/	ge-	4g\	ge-	4ccny\	ge-	4ee\	ge-	.	.	.	.	.	.	.	.
!	!	!	!	!	!	!	!	!LO:LB:g=original	!	!	!	!	!	!	!
=11-	=11-	=11-	=11-	=11-	=11-	=11-	=11-	=11-	=11-	=11-	=11-	=11-	=11-	=11-	=11-
!	!	!LO:TX:b:t=P:problem=# below	!	!	!	!LO:SIC:v:s=2ff#\	!	!	!	!	!	!	!	!	!
2d\	-men-	2f#X\	-men-	2dd\	-men-	2ff\	-men-	0r	.	0r	.	0r	.	0r	.
4c/	-tes	4g\	-tes	4g/	-tes	4ee\	-tes	.	.	.	.	.	.	.	.
4A/	et	4a\	et	4cc\	et	4cc\	et	.	.	.	.	.	.	.	.
4G/	flen-	2d/	flen-	1b-	flen-	1dd	flen-	.	.	.	.	.	.	.	.
4A/	.	.	.	.	.	.	.	.	.	.	.	.	.	.	.
4B-/	.	2g\	.	.	.	.	.	.	.	.	.	.	.	.	.
4c/	.	.	.	.	.	.	.	.	.	.	.	.	.	.	.
=12-	=12-	=12-	=12-	=12-	=12-	=12-	=12-	=12-	=12-	=12-	=12-	=12-	=12-	=12-	=12-
!	!	!LO:TX:b:t=P:problem=# below	!	!	!	!	!	!	!	!	!	!	!	!	!
2d\	-tes	2f#X\	-tes	2a\	-tes	2dd\	-tes	4r	.	4r	.	4r	.	4r	.
.	.	.	.	.	.	.	.	4d\	ge-	4a\	ge-	4dd\	ge-	4dd\	ge-
2r	.	2r	.	2r	.	2r	.	2e-X\	-men-	2g\	-men-	4.b-\	-men-	2gg\	-men-
.	.	.	.	.	.	.	.	.	.	.	.	8ccny\	.	.	.
!	!	!	!	!	!	!	!	!	!	!	!	!	!	!LO:TX:b:t=P:problem=# below	!
0r	.	0r	.	0r	.	0r	.	4d\	-tes	4a\	-tes	4dd\	-tes	4ff#X\	-tes
!	!	!	!	!	!	!	!	!	!	!	!	!	!	!LO:TX:b:t=P:problem=# below	!
.	.	.	.	.	.	.	.	4d\	et	4a\	et	4dd\	et	4ff#X\	et
.	.	.	.	.	.	.	.	4.g\	flen-	4.b-\	flen-	2dd\	flen-	2.gg\	flen-
.	.	.	.	.	.	.	.	8f\	.	8a\	.	.	.	.	.
=13-	=13-	=13-	=13-	=13-	=13-	=13-	=13-	=13-	=13-	=13-	=13-	=13-	=13-	=13-	=13-
.	.	.	.	.	.	.	.	4e-X\	.	4g\	.	2b-\	.	.	.
*	*	*	*	*	*	*	*	*	*	*custos:g	*	*	*	*	*
.	.	.	.	.	.	.	.	4d\	.	4d/	.	.	.	4ffny\	.
!	!	!	!	!	!	!	!	!	!	!LO:LB:g=original	!	!	!	!	!
.	.	.	.	.	.	.	.	2c/	.	2g\	.	(4cc\	.	2ee-X\	.
.	.	.	.	.	.	.	.	.	.	.	.	4b-\)	.	.	.
!	!	!	!	!	!	!	!	!	!	!LO:TX:b:t=P:problem=# below	!	!	!	!LO:TX:t=P:global:problem=oddech jako rozdzielacz słów	!
2r	.	2r	.	2r	.	2r	.	2d\	-tes	2f#X\	-tes	2a\	-tes	2dd,<\	-tes
4F/	in	2fny\	in	2a\	in	2.cc\	in	1f\	in	1a\	in	1cc\	in	1ff\	in
4G/	.	.	.	.	.	.	.	.	.	.	.	.	.	.	.
=14-	=14-	=14-	=14-	=14-	=14-	=14-	=14-	=14-	=14-	=14-	=14-	=14-	=14-	=14-	=14-
4A/	hac	2c/	hac	1cc	hac	.	.	.	.	.	.	.	.	.	.
4B-/	.	.	.	.	.	4dd\	.	.	.	.	.	.	.	.	.
2c/	la-	2g\	la-	.	.	2ee-X\	hac	2c/	hac	2g\	hac	2cc\	hac	2ee-X\	hac
2G/	-cri-	1g	-cri-	2b-\	la-	2b-/	la-	2g\	la-	2g\	la-	2dd\	la-	2dd\	la-
2c/	.	.	.	2g/	-cri-	2ee-X\	-cri-	2c/	-cri-	2g\	-cri-	2ee-X\	-cri-	2ccny\	-cri-
=15-	=15-	=15-	=15-	=15-	=15-	=15-	=15-	=15-	=15-	=15-	=15-	=15-	=15-	=15-	=15-
2G/	-ma-	2.g\	-ma-	2b-\	-ma-	2dd\	-ma-	2g\	-ma-	2g\	-ma-	2b-\	-ma-	2dd\	-ma-
4c/	-rum	.	.	2g/	-rum	2cc\	-rum	4c/	-rum	2g\	-rum	4cc\	-rum	2ee-X\	rum
4g\	.	4d/	-rum	.	.	.	.	4G/	.	.	.	4b-\	.	.	.
1d	val-	1d	val-	1dd	val-	1dd	val-	1d	val-	1a	val-	2a\	val-	1dd	val-
.	.	.	.	.	.	.	.	.	.	.	.	2dd\	.	.	.
=16-	=16-	=16-	=16-	=16-	=16-	=16-	=16-	=16-	=16-	=16-	=16-	=16-	=16-	=16-	=16-
0Gl;;	-le	0dl;;	-le	0ddl	-le.	0ddl;;	-le.	0gl;;	-le.	0gl;;	-le	0ddl;;	-le.	0ddl;;	-le.
!LO:LB:g=original	!	!LO:LB:g=original	!	!	!	!LO:LB:g=original	!	!LO:LB:g=original	!	!	!	!LO:PB:g=original	!	!	!
=17||	=17||	=17||	=17||	=17||	=17||	=17||	=17||	=17||	=17||	=17||	=17||	=17||	=17||	=17||	=17||
0G	Et	1d	Et	0b-	Et	0dd	Et	0g	Et	0g	Et	0b-	Et	0dd	Et
.	.	0g	JE-	.	.	.	.	.	.	.	.	.	.	.	.
=18-	=18-	=18-	=18-	=18-	=18-	=18-	=18-	=18-	=18-	=18-	=18-	=18-	=18-	=18-	=18-
0c	JE-	.	.	1.g	JE-	0cc	JE-	0c	JE-	0g	JE-	0cc	JE-	0ee-X	JE-
.	.	0g	.	.	.	.	.	.	.	.	.	.	.	.	.
.	.	.	.	2a\	.	.	.	.	.	.	.	.	.	.	.
=19-	=19-	=19-	=19-	=19-	=19-	=19-	=19-	=19-	=19-	=19-	=19-	=19-	=19-	=19-	=19-
!	!	!	!	!	!	!	!	!	!	!	!	!LO:N:acc=#	!	!	!
!	!	!	!	!LO:SIC:v:s=0bn	!	!	!	!	!	!	!	!LO:TX:b:t=P:problem=# below	!	!	!
0G	-SVM	.	.	0b-	-SVM	0dd	-SVM	0g	-SVM	0g	-SVM	0bn	[S]VM	0dd	-SVM
.	.	1d	-SVM	.	.	.	.	.	.	.	.	.	.	.	.
=20-	=20-	=20-	=20-	=20-	=20-	=20-	=20-	=20-	=20-	=20-	=20-	=20-	=20-	=20-	=20-
*M3/2	*	*M3/2	*	*M3/2	*	*M3/2	*	*M3/2	*	*M3/2	*	*M3/2	*	*M3/2	*
0.r	.	0.r	.	0.r	.	0.r	.	0f	be-	0a	be-	0cc	be-	0ff	be-
.	.	.	.	.	.	.	.	1c	-ne-	1g	-ne-	1cc	-ne-	1ee	-ne-
=21-	=21-	=21-	=21-	=21-	=21-	=21-	=21-	=21-	=21-	=21-	=21-	=21-	=21-	=21-	=21-
0f	be-	0f	be-	0cc	be-	0ff	be-	0d	-di-	0f	-di-	1.a	-di-	0dd	-di-
.	.	.	.	.	.	.	.	.	.	.	.	2b-y\	.	.	.
1e	-ne-	1a	-ne-	1cc	-ne-	1cc	-ne-	1A	-ctum	1e	-ctum	1cc	-ctum	1ee,<	-ctum
=22-	=22-	=22-	=22-	=22-	=22-	=22-	=22-	=22-	=22-	=22-	=22-	=22-	=22-	=22-	=22-
0f	-di-	0a	-di-	1.a	-di-	0ff	-di-	2F/	fru-	0f	fru-	0cc	fru-	0aa	be-
.	.	.	.	.	.	.	.	2G/	.	.	.	.	.	.	.
.	.	.	.	.	.	.	.	2A/	.	.	.	.	.	.	.
.	.	.	.	2b-\	.	.	.	2B-/	.	.	.	.	.	.	.
*	*	*	*	*	*	*	*	*	*	*custos:a	*	*	*	*	*
1c	-ctum	1e	-ctum	1cc	-ctum	1ee,<	-ctum	1c,<	-ctum	1g	-ctum.	1cc,<	-ctum	1gg	-ne-
!	!	!	!	!	!	!	!	!	!	!LO:LB:g=original	!	!	!	!	!
=23-	=23-	=23-	=23-	=23-	=23-	=23-	=23-	=23-	=23-	=23-	=23-	=23-	=23-	=23-	=23-
2F/	fru-	1a	fru-	0cc	fru-	0cc	be-	0f	be-	0a	be-	0a	be-	0ff	-di-
2G/	.	.	.	.	.	.	.	.	.	.	.	.	.	.	.
2A/	.	1e	.	.	.	.	.	.	.	.	.	.	.	.	.
2B-/	.	.	.	.	.	.	.	.	.	.	.	.	.	.	.
1c,<	-ctum	1e,<	-ctum	1cc	-ctum	1ee	-ne-	1c	-ne-	1g	-ne-	1cc	-ne-	1ee	-ctum
=24-	=24-	=24-	=24-	=24-	=24-	=24-	=24-	=24-	=24-	=24-	=24-	=24-	=24-	=24-	=24-
0f	be-	0c	be-	0a	be-	1.cc	-di-	2F/	-di-	0a	-di-	0cc	-di-	0ff	fru-
.	.	.	.	.	.	.	.	2G/	.	.	.	.	.	.	.
.	.	.	.	.	.	.	.	2A/	.	.	.	.	.	.	.
.	.	.	.	.	.	2dd\	.	2B-/	.	.	.	.	.	.	.
1c	-ne-	1c	-ne-	1cc	-ne-	1ee	-ctum,	1c	-ctum	1g,<	-ctum	1cc	-ctum	1gg,<	-ctum
=25-	=25-	=25-	=25-	=25-	=25-	=25-	=25-	=25-	=25-	=25-	=25-	=25-	=25-	=25-	=25-
2F/	-di-	0f	-di-	0cc	-di-	0cc	be-	0f	be-	0a	be-	0a	be-	0ff	be-
2G/	.	.	.	.	.	.	.	.	.	.	.	.	.	.	.
2A/	.	.	.	.	.	.	.	.	.	.	.	.	.	.	.
2B-/	.	.	.	.	.	.	.	.	.	.	.	.	.	.	.
*	*	*	*	*	*	*	*	*custos:F	*	*	*	*	*	*	*
1c	-ctum	1g	-ctum	1cc	-cta	1ee	-ne-	1c	-ne-	1g	-ne-	1cc	-ne-	1ee	-ne-
!	!	!	!	!	!	!	!	!LO:LB:g=original	!	!	!	!	!	!	!
=26-	=26-	=26-	=26-	=26-	=26-	=26-	=26-	=26-	=26-	=26-	=26-	=26-	=26-	=26-	=26-
0f	fru-	0a	fru-	0cc	fru-	1.cc	-di-	2F/	-di-	0f	-di-	1.a	-di-	0ff	-di-
.	.	.	.	.	.	.	.	2G/	.	.	.	.	.	.	.
.	.	.	.	.	.	.	.	2A/	.	.	.	.	.	.	.
.	.	.	.	.	.	2dd\	.	2B-/	.	.	.	2b-\	.	.	.
*	*	*	*	*	*	*custos:ee	*	*	*	*	*	*custos:cc	*	*	*
1c	-ctum.	1a	-ctu(m)	1cc	-cta.	1ee	-ctum.	1c	-ctum	1g	-ctum	1cc	-ctum.	1ee	-ctum
!LO:PB:g=original	!	!	!	!	!	!LO:LB:g=original	!	!	!	!	!	!LO:LB:g=original	!	!	!
=27-	=27-	=27-	=27-	=27-	=27-	=27-	=27-	=27-	=27-	=27-	=27-	=27-	=27-	=27-	=27-
*M2/1	*	*M2/1	*	*M2/1	*	*M2/1	*	*M2/1	*	*M2/1	*	*M2/1	*	*M2/1	*
*met(C|)	*	*met(C|)	*	*met(C|)	*	*met(C|)	*	*met(C|)	*	*met(C|)	*	*met(C|)	*	*met(C|)	*
!	!	!	!	!	!	!	!	!	!	!	!	!LO:TX:b:t=P:problem=# below	!	!	!
1r	.	1r	.	1r	.	1r	.	4A/	fru-	4a\	fru-	4cc#X\	fru-	4ee\	fru-
!	!	!	!	!	!	!	!	!	!	!	!	!LO:TX:b:t=P:problem=# below	!	!	!
.	.	.	.	.	.	.	.	4A/	-ctum	4a\	-ctum	4cc#X\	-ctum	4ee\	-ctum
.	.	.	.	.	.	.	.	4d\	ven-	4a\	ven-	4dd\	ven-	4ff\	ven-
*	*	*	*	*	*	*	*	*	*	*	*	*	*	*custos:ee	*
.	.	.	.	.	.	.	.	4d\	-tris	4f\	-tris	4dd\	-tris	4dd\	-tris
!	!	!	!	!	!	!	!	!	!	!	!	!LO:TX:b:t=P:problem=# below	!	!LO:LB:g=original	!
4a\	fru-	4a\	fru-	4a\	fru-	4ee\	fru-	2A/	tu-	2a\	tu-	2cc#X\	tu-	2ee\	tu-
4a\	-ctum	4a\	-ctum	4a\	-ctum	4ee\	-ctum	.	.	.	.	.	.	.	.
4d\	ven-	4a\	ven-	4a\	ven-	4ff\	ven-	2d\	-i	2a\	-i	2dd\	-i	2dd\	-i
4d\	-tris	4f\	-tris	4dd\	-tris	4dd\	-tris	.	.	.	.	.	.	.	.
=28-	=28-	=28-	=28-	=28-	=28-	=28-	=28-	=28-	=28-	=28-	=28-	=28-	=28-	=28-	=28-
!	!	!	!	!LO:TX:b:t=P:problem=# below	!	!LO:TX:b:t=P:problem=# below	!	!	!	!	!	!	!	!	!
2a\	tu-	2a\	tu-	2cc#X\	tu-	2cc#X\	tu-	4A/	fru-	4a\	fru-	4ee\	fru-	4ee\	fru-
.	.	.	.	.	.	.	.	4A/	-ctum	4a\	-ctum	4ee\	-ctum	4ee\	-ctum
2d\	-i	2a\	-i	2dd\	-i	2dd\	-i	4d\	ven-	4a\	ven-	4dd\	ven-	4ff\	ven-
.	.	.	.	.	.	.	.	4d\	-tris	4f\	-tris	4dd\	-tris	4dd\	-tris
!	!	!	!	!	!	!	!	!	!	!	!	!LO:TX:b:t=P:problem=# below	!	!	!
1r	.	1r	.	1r	.	1r	.	4A/	tu-	4a\	tu-	4cc#X\	tu-	4ee\	tu-
.	.	.	.	.	.	.	.	4B-/	.	4d/	.	4dd\	.	4ff\	.
!	!	!	!	!	!	!	!	!	!	!	!	!LO:TX:b:t=P:problem=# below	!	!	!
.	.	.	.	.	.	.	.	2A/	.	2a\	.	2cc#X\	.	2ee\	.
=29-	=29-	=29-	=29-	=29-	=29-	=29-	=29-	=29-	=29-	=29-	=29-	=29-	=29-	=29-	=29-
4r	.	4r	.	4r	.	4r	.	2d\	-i	2a\	-i	2dd\	-i	2dd\	-i
4d\	no-	4a\	no-	4a\	no-	4dd\	no-	.	.	.	.	.	.	.	.
*	*	*custos:g	*	*custos:cc	*	*	*	*	*	*custos:g	*	*	*	*	*
2g\	-bis	2g\	-bis	2b-\	-bis	2ee\	-bis	4r	.	4r	.	4r	.	4r	.
!	!	!	!	!	!	!	!	!	!	!LO:LB:g=original	!	!	!	!	!
.	.	.	.	.	.	.	.	4G/	no-	4g\	no-	4b-\	no-	4dd\	no-
!	!	!LO:LB:g=original	!	!LO:LB:g=original	!	!	!	!	!	!	!	!	!	!	!
4r	.	4r	.	4r	.	4r	.	2c/	-bis	2g\	-bis	2ccny\	-bis	2ee\	-bis
4c/	no-	4g\	no-	4ccny\	no-	4ee\	no-	.	.	.	.	.	.	.	.
2f\	-bis	2a\	-bis	2cc\	-bis	2ff\	-bis	4r	.	4r	.	4r	.	4r	.
.	.	.	.	.	.	.	.	4F/	no-	4a\	no-	4cc\	no-	4ff\	no-
=30-	=30-	=30-	=30-	=30-	=30-	=30-	=30-	=30-	=30-	=30-	=30-	=30-	=30-	=30-	=30-
*	*	*	*	*	*	*	*	*custos:g	*	*	*	*	*	*	*
1r	.	1r	.	1r	.	1r	.	2c/	-bis	2g\	-bis	2cc\	-bis	2ee,<\	-bis
!	!	!	!	!	!	!	!	!	!	!	!	!LO:N:acc=#	!	!	!
!	!	!	!	!	!	!	!	!LO:LB:g=original	!	!	!	!LO:TX:b:t=P:problem=# below	!	!	!
.	.	.	.	.	.	.	.	2g\	post	2g\	post	2bn\	post	2dd\	post
2r	.	2r	.	2r	.	2r	.	4e\	hoc	4g\	hoc	4cc\	hoc	4gg\	hoc
.	.	.	.	.	.	.	.	4c/	e-	4g\	e-	4cc\	e-	4ee\	e-
!	!	!	!	!	!	!	!	!	!	!	!	!LO:N:acc=#	!	!	!
!	!	!	!	!	!	!	!	!	!	!	!	!LO:TX:b:t=P:problem=# below	!	!	!
2g\	post	2g\	post	2dd\	post	2dd\	post	4.g\	-xi-	4.g\	-xi-	4.bn\	-xi-	4.dd\	-xi-
*	*	*	*	*	*	*	*	*	*	*	*	*custos:cc	*	*	*
.	.	.	.	.	.	.	.	8g\	-li-	8g\	-li-	8b\	-li-	8dd\	-li-
!	!	!	!	!	!	!	!	!	!	!	!	!LO:LB:g=original	!	!	!
=31-	=31-	=31-	=31-	=31-	=31-	=31-	=31-	=31-	=31-	=31-	=31-	=31-	=31-	=31-	=31-
4e\	hoc	4g\	hoc	4cc\	hoc	4gg\	hoc	2c/	-um	2g\	-um	2cc\	-um	2ee\	-um
4c/	e-	4g\	e-	4cc\	e-	4ee\	e-	.	.	.	.	.	.	.	.
4.g\	-xi-	4.g\	-xi-	4.dd\	-xi-	4.dd\	-xi-	4r	.	4r	.	4r	.	4r	.
.	.	.	.	.	.	.	.	4g\	post	4g\	post	4b-y\	post	4dd\	post
8g\	-li-	8g\	-li-	8dd\	-li-	8dd\	-li-	.	.	.	.	.	.	.	.
2c/	-um	2g\	-um	2cc\	-um	2ee\	-um	4e\	hoc	4g\	hoc	4cc\	hoc	4gg\	hoc
.	.	.	.	.	.	.	.	4c/	e-	4g\	e-	4cc\	e-	4ee\	e-
4r	.	4r	.	4r	.	4r	.	4.g\	-xi-	4.g\	-xi-	4.dd\	-xi-	4.gg\	-xi-
4G/	o-	4g\	o-	4b-\	o-	4dd\	o-	.	.	.	.	.	.	.	.
.	.	.	.	.	.	.	.	8g\	-li-	8g\	-li-	8dd\	-li-	8gg\	-li-
=32-	=32-	=32-	=32-	=32-	=32-	=32-	=32-	=32-	=32-	=32-	=32-	=32-	=32-	=32-	=32-
*	*	*	*	*	*	*	*	*	*	*	*	*	*	*custos:dd	*
!	!	!	!	!	!	!	!	!	!	!	!	!	!	!LO:TX:b:t=P:problem=# below	!
!	!	!LO:TX:b:t=P:problem=# below	!	!	!	!	!	!	!	!	!	!	!	!	!
2d\	-ſten-	2f#X\	-ſten-	2a\	-ſten-	2dd\	-sten-	2d\	-um	2a\	-um	2dd\	-um	2ff#X\	-um
*custos:d	*	*	*	*	*	*	*	*	*	*	*	*	*	*	*
!	!	!	!	!LO:N:acc=#	!	!	!	!	!	!	!	!	!	!	!
!	!	!	!	!LO:TX:b:t=P:problem=# below	!	!	!	!	!	!	!	!	!	!LO:PB:g=original	!
2G/	-de	2g\	-de	2bn\	-de	2dd\	-de	4r	.	4r	.	4r	.	4r	.
.	.	.	.	.	.	.	.	4g\	o-	4g\	o-	4dd\	o-	4dd\	o-
*	*	*	*	*	*	*custos:ff	*	*	*	*	*	*	*	*	*
!LO:LB:g=original	!	!	!	!	!	!	!	!	!	!	!	!	!	!	!
4r	.	4r	.	4r	.	4r	.	4e-X\	-ſten-	4g\	-ſten-	8b-\L	-ſten-	4gg\	-sten-
.	.	.	.	.	.	.	.	.	.	.	.	8cc\J	.	.	.
!	!	!	!	!	!	!	!	!	!	!	!	!	!	!LO:SIC:v:s=4ffn\	!
!	!	!	!	!	!	!LO:LB:g=original	!	!	!	!	!	!	!	!LO:TX:b:t=P:problem=# below	!
4d\	o-	4a\	o-	4dd\	o-	4ff\	o-	4d\	-de	4a\	-de	4dd\	-de	4ff#X\	-de
4A/	-ſten-	4a\	-ſten-	4cc\	-ſten-	4ee\	-ſten-	4r	.	4r	.	4r	.	4r	.
4d\	-de	4a\	-de	4dd\	-de	4dd\	-de	4d\	o-	4a\	o-	4dd\	o-	4ffny\	o-
=33-	=33-	=33-	=33-	=33-	=33-	=33-	=33-	=33-	=33-	=33-	=33-	=33-	=33-	=33-	=33-
!	!	!	!	!	!	!	!	!	!	!	!	!LO:TX:b:t=P:problem=# below	!	!	!
4r	.	4r	.	4r	.	4r	.	4A/	-sten-	4a\	-sten-	4cc#X\	-sten-	4ee\	-sten-
*	*	*	*	*	*ij	*	*	*	*	*	*	*	*	*	*
4d\	o-	4a\	o-	4dd\	o-	4ff\	o-	4d\	-de	4a\	-de.	4dd\	-de	4dd\	-de
*	*	*	*	*	*	*	*	*	*	*custos:a	*	*	*	*	*
4f\	-sten-	4a\	-ſten-	4cc\	-ſten-	4ff\	-sten-	4r	.	4r	.	4r	.	4r	.
!	!	!	!	!LO:N:acc=#	!	!	!	!	!	!	!	!	!	!	!
!	!	!	!	!LO:TX:b:t=P:problem=# below	!	!	!	!	!	!LO:PB:g=original	!	!	!	!	!
4g\	-de	4g\	-de	4bn\	-de	4dd\	-de	4G/	o-	4g\	o-	4b-\	o-	4dd\	o-
!	!	!	!	!	!	!	!	!	!	!LO:TX:a:t=P:problem=# above	!	!	!	!	!
4r	.	4r	.	4r	.	4r	.	4d\	-sten-	4f#X\	-ſten-	4a\	-sten-	4dd\	-sten-
*	*	*	*	*	*	*	*	*custos:g	*	*	*	*	*	*	*
4G/	o-	4g\	o-	4b-y\	o-	4dd\	o-	4G/	-de.	4g\	-de.	4b-\	-de	4dd\	-de
!	!	!LO:TX:a:t=P:problem=# above	!	!	!	!	!	!LO:LB:g=original	!	!	!	!	!	!	!
4d\	-sten-	4f#X\	-ſten-	4a\	-ſten-	4dd\	-ſten-	4r	.	4r	.	4r	.	4r	.
!	!	!	!	!LO:N:acc=#	!	!	!	!	!	!	!	!	!	!	!
!	!	!	!	!LO:TX:a:t=P:problem=# above	!	!	!	!	!	!	!	!	!	!	!
4G/	-de	4g\	-de	4bn\	-de	4dd\	-de	4g\	o-	4g\	o-	4dd\	o-	4gg\	o-
=34-	=34-	=34-	=34-	=34-	=34-	=34-	=34-	=34-	=34-	=34-	=34-	=34-	=34-	=34-	=34-
!	!	!	!	!	!	!	!	!	!	!LO:TX:a:t=P:problem=# above	!	!	!	!LO:TX:b:t=P:problem=# below	!
4r	.	4r	.	4r	.	4r	.	4d\	-sten-	4f#X\	-sten-	4dd\	-sten-	4ff#X\	-sten-
4G/	o-	4b-\	o-	4dd\	o-	4dd\	o-	4g\	-de	4g\	-de	4dd\	-de.	4gg\	-de
*	*	*	*	*	*	*	*	*	*	*	*	*custos:dd	*	*	*
4c/	-sten-	4cc\	-ſten-	4cc\	-ſten-	4ee-X\	-ſten-	4r	.	4r	.	4r	.	4r	.
!	!	!	!	!	!	!	!	!	!	!	!	!LO:LB:g=original	!	!	!
4G/	-de	4b-\	-de	4dd\	-de	4dd\	-de	4g\	o-	4b-\	o-	4dd\	o-	4dd\	o-
*	*	*custos:b-	*	*	*	*	*	*	*	*	*	*	*	*	*
4r	.	4r	.	4r	.	4r	.	4c/	-sten-	4cc\	-sten-	4ccny\	-sten-	4ee-X\	-ſten-
!	!	!LO:LB:g=original	!	!	!	!	!	!	!	!	!	!	!	!	!
4G/	o-	4b-\	o-	4dd\	o-	4dd\	o-	4g\	-de	4b-\	-de	4dd\	-de	4dd\	-de
4c/	-sten-	4cc\	-ſten-	4cc\	-ſten-	4ee-X\	-ſten-	4r	.	4r	.	4r	.	4r	.
8G/	-de	8b-\L	-de	8dd\L	-de	8dd\L	-de	4G/	o-	4g\	o-	4dd\	o-	2gg\	o-
*	*	*	*	*	*	*	*ij	*	*	*	*	*	*	*	*
8g\	o-	8g\J	o-	8b-y\J	o-	8dd\J	o-	.	.	.	.	.	.	.	.
=35-	=35-	=35-	=35-	=35-	=35-	=35-	=35-	=35-	=35-	=35-	=35-	=35-	=35-	=35-	=35-
2d\	-sten-	4a\	-sten-	2a\	-ſten-	2dd\	-ſten-	2d\	-sten-	2g\	-sten-	2dd\	-sten-	.	.
!	!	!	!	!	!	!	!	!	!	!	!	!	!	!LO:TX:b:t=P:problem=# below	!
.	.	4d/	.	.	.	.	.	.	.	.	.	.	.	4ff#X\	-sten-
*	*	*	*	*	*	*	*	*	*	*	*	*	*	*custos:gg	*
2g\	-de	2d,</	-de	2b-,<\	-de	2dd,<\	-de	2G/	-de	2g,<\	-de	2b-,<\	-de	2gg\	-de
*	*	*	*ij	*	*Xij	*	*Xij	*	*	*	*ij	*	*	*	*
!	!	!	!	!	!	!	!	!	!	!	!	!	!	!LO:LB:g=original	!
4G/	ô-	2d/	o-	1b-	o-	1dd	o-	4g\	o-	1g	o-	1b-	o-	2gg\	ô-
4A/	.	.	.	.	.	.	.	4f\	.	.	.	.	.	.	.
4B-/	.	2g\	-sten-	.	.	.	.	4e-X\	.	.	.	.	.	4gg\	-sten-
*custos:c	*	*	*	*	*	*	*	*	*	*	*	*	*	*	*
4G/	.	.	.	.	.	.	.	4d\	.	.	.	.	.	4ffny\	.
!LO:LB:g=original	!	!	!	!	!	!	!	!	!	!	!	!	!	!	!
=36-	=36-	=36-	=36-	=36-	=36-	=36-	=36-	=36-	=36-	=36-	=36-	=36-	=36-	=36-	=36-
1c	.	1.g	-de	2.g/	-ſten-	2ee-X\	-ſten-	4c/	.	1g	-sten-	1cc	-ſten-	4ee-X\	.
.	.	.	.	.	.	.	.	4d\	.	.	.	.	.	4dd\	.
.	.	.	.	.	.	2ccny\	.	4e-X\	.	.	.	.	.	2ee-X\	.
.	.	.	.	4a\	.	.	.	4f\	.	.	.	.	.	.	.
*	*	*	*Xij	*	*	*	*	*lig	*	*	*	*	*	*	*
4G/	-sten-	.	.	2b-,<\	-de	2dd,<\	-de	1g	-sten-	2g,<\	-de	2b-,<\	-de	2dd\	-de
*	*	*	*	*	*	*	*	*	*	*	*Xij	*	*	*	*
4A/	.	.	.	.	.	.	.	.	.	.	.	.	.	.	.
4B-/	.	2d/	o-	2b-\	o-	2dd\	o-	.	.	2g\	o-	2b-\	o-	2.gg\	o-
4c/	.	.	.	.	.	.	.	.	.	.	.	.	.	.	.
=37-	=37-	=37-	=37-	=37-	=37-	=37-	=37-	=37-	=37-	=37-	=37-	=37-	=37-	=37-	=37-
1d	.	1d	-sten-	1a	-ſten-	1dd	-ſten-	1d	.	1a	-sten-	1dd	-ſten-	.	.
.	.	.	.	.	.	.	.	.	.	.	.	.	.	8ff\L	.
.	.	.	.	.	.	.	.	.	.	.	.	.	.	8eeny\J	.
!	!	!	!	!	!	!	!	!	!	!	!	!	!	!LO:TX:b:t=P:problem=# below	!
.	.	.	.	.	.	.	.	.	.	.	.	.	.	2ff#X\	-sten-
*	*	*	*	*	*	*	*	*Xlig	*	*	*	*	*	*	*
!	!	!	!	!LO:N:acc=#	!	!	!	!	!	!	!	!	!	!	!
!	!	!	!	!LO:TX:b:t=P:problem=# below	!	!	!	!	!	!	!	!	!	!	!
1Gl;;	-de	1d;	-de	1bnl;;	-de	1ddl;;	-de.	1gl;;	-de.	1gl;;	-de	1ddl;;	-de	1ggl;;	-de
!	!	!	!	!LO:PB:g=original	!	!LO:PB:g=original	!	!	!	!	!	!	!	!	!
=38||-	=38||-	=38||-	=38||-	=38||-	=38||-	=38||-	=38||-	=38||-	=38||-	=38||-	=38||-	=38||-	=38||-	=38||-	=38||-
*M2/1	*	*M2/1	*	*M2/1	*	*M2/1	*	*M2/1	*	*M2/1	*	*M2/1	*	*M2/1	*
*met(C|)	*	*met(C|)	*	*met(C|)	*	*met(C|)	*	*met(C|)	*	*met(C|)	*	*met(C|)	*	*met(C|)	*
00r	.	00r	.	00r	.	00r	.	8B-/L	Ô	2fny\	Ô	2b-\	Ô	2dd\	Ô
.	.	.	.	.	.	.	.	8c/J	.	.	.	.	.	.	.
.	.	.	.	.	.	.	.	8d\L	.	.	.	.	.	.	.
.	.	.	.	.	.	.	.	8eny\J	.	.	.	.	.	.	.
.	.	.	.	.	.	.	.	2f\	.	2a\	pi-	4a\	.	4cc\	.
.	.	.	.	.	.	.	.	.	.	.	.	4f/	.	4a/	.
.	.	.	.	.	.	.	.	2e-X\	.	4g,<\	-a	2g/	.	4b-/	pi-
.	.	.	.	.	.	.	.	.	.	4g\	ô	.	.	4g/	.
.	.	.	.	.	.	.	.	2d\	.	4f\	.	4a\	.	2dd\	-a
.	.	.	.	.	.	.	.	.	.	4d/	.	4b-\	.	.	.
=39-	=39-	=39-	=39-	=39-	=39-	=39-	=39-	=39-	=39-	=39-	=39-	=39-	=39-	=39-	=39-
*	*	*	*	*	*	*	*	*	*	*	*	*custos:a	*	*	*
.	.	.	.	.	.	.	.	2c/	pi-	2e-X/	pi-	2cc\	.	4r	.
.	.	.	.	.	.	.	.	.	.	.	.	.	.	4gg\	ô
!	!	!	!	!	!	!	!	!	!	!	!	!LO:LB:g=original	!	!	!
.	.	.	.	.	.	.	.	4d,<\	-a	2d/	-a	4a\	pi-	4ffny\	.
*	*	*	*	*	*	*	*	*	*	*	*	*	*	*custos:ee	*
.	.	.	.	.	.	.	.	4d\	ô	.	.	4b-\	.	4dd\	.
!	!	!	!	!	!	!	!	!	!	!	!	!	!	!LO:LB:g=original	!
.	.	.	.	.	.	.	.	4c/	.	4g\	ô	2cc\	-a	4ee-X\	pi-
.	.	.	.	.	.	.	.	4A/	.	4a\	.	.	.	4cc\	.
.	.	.	.	.	.	.	.	2B-/	.	2d/	.	4r	.	2dd\	-a
.	.	.	.	.	.	.	.	.	.	.	.	4dd\	ô	.	.
=40-	=40-	=40-	=40-	=40-	=40-	=40-	=40-	=40-	=40-	=40-	=40-	=40-	=40-	=40-	=40-
00r	.	00r	.	00r	.	00r	.	2A/	.	4eny/	pi-	4cc\	.	2r	.
.	.	.	.	.	.	.	.	.	.	4f\	.	4a\	.	.	.
.	.	.	.	.	.	.	.	2G/	.	2g\	-a	2b-\	.	4r	.
.	.	.	.	.	.	.	.	.	.	.	.	.	.	4dd\	Ô
.	.	.	.	.	.	.	.	2A/	pi-	4r	.	2a\	pi-	4cc\	.
.	.	.	.	.	.	.	.	.	.	4cc\	ô	.	.	4a/	.
.	.	.	.	.	.	.	.	2.G,</	-a	4b-\	.	2dd\	-a	2.b-/	pi-
.	.	.	.	.	.	.	.	.	.	4g\	.	.	.	.	.
=41-	=41-	=41-	=41-	=41-	=41-	=41-	=41-	=41-	=41-	=41-	=41-	=41-	=41-	=41-	=41-
.	.	.	.	.	.	.	.	.	.	2g\	pi-	2.dd\	ô	.	.
.	.	.	.	.	.	.	.	4A/	Ô	.	.	.	.	4cc\	.
.	.	.	.	.	.	.	.	4B-/	.	4f\	-a	.	.	4dd\	.
.	.	.	.	.	.	.	.	4c/	.	4e/	ô	8cc\L	.	4eeny\	.
.	.	.	.	.	.	.	.	.	.	.	.	8b-\J	.	.	.
!	!	!	!	!	!	!	!	!	!	!	!	!	!	!LO:TX:b:t=P:problem=# below	!
.	.	.	.	.	.	.	.	4d\	.	4d/	.	4a\	.	4ff#X\	.
.	.	.	.	.	.	.	.	4e-X\	.	4g\	.	4g/	.	2gg\	.
.	.	.	.	.	.	.	.	2d\	pi-	2a\	pi-	2dd\	pi-	.	.
!	!	!	!	!	!	!	!	!	!	!	!	!	!	!LO:TX:b:t=P:problem=# below	!
.	.	.	.	.	.	.	.	.	.	.	.	.	.	4ff#X\	.
=42-	=42-	=42-	=42-	=42-	=42-	=42-	=42-	=42-	=42-	=42-	=42-	=42-	=42-	=42-	=42-
*	*	*	*	*	*	*	*	*custos:g	*	*custos:b-	*	*	*	*	*
1r	.	1r	.	1r	.	1r	.	1G	-a	1g	-a	1dd	-a	1gg	-a
!	!	!	!	!	!	!	!	!LO:LB:g=original	!	!LO:LB:g=original	!	!	!	!	!
8B-/L	Ô	2fny\	Ô	2b-y\	Ô	2dd\	Ô	00r	.	00r	.	00r	.	00r	.
8c/J	.	.	.	.	.	.	.	.	.	.	.	.	.	.	.
8d\L	.	.	.	.	.	.	.	.	.	.	.	.	.	.	.
8e\J	.	.	.	.	.	.	.	.	.	.	.	.	.	.	.
2f\	.	2a\	pi-	4a\	.	4cc\	.	.	.	.	.	.	.	.	.
.	.	.	.	4f/	.	4a/	.	.	.	.	.	.	.	.	.
=43-	=43-	=43-	=43-	=43-	=43-	=43-	=43-	=43-	=43-	=43-	=43-	=43-	=43-	=43-	=43-
2e-X\	.	4g,<\	-a	2g/	.	4b-/	pi-	.	.	.	.	.	.	.	.
.	.	4g\	Ô	.	.	4g/	.	.	.	.	.	.	.	.	.
2d\	.	4f\	.	4a\	.	2dd\	-a	.	.	.	.	.	.	.	.
.	.	4d/	.	4b-\	.	.	.	.	.	.	.	.	.	.	.
2c/	pi-	2e-X/	pi-	2cc\	.	4r	.	.	.	.	.	.	.	.	.
.	.	.	.	.	.	4gg\	ô	.	.	.	.	.	.	.	.
*	*	*custos:g	*	*	*	*	*	*	*	*	*	*	*	*	*
4d,<\	-a	2d/	-a.	4a\	pi-	4ff\	.	.	.	.	.	.	.	.	.
4d\	ô	.	.	4b-\	.	4dd\	.	.	.	.	.	.	.	.	.
!	!	!LO:LB:g=original	!	!	!	!	!	!	!	!	!	!	!	!	!
=44-	=44-	=44-	=44-	=44-	=44-	=44-	=44-	=44-	=44-	=44-	=44-	=44-	=44-	=44-	=44-
4c/	.	4g\	ô	2cc\	-a	4ee-X\	pi-	.	.	.	.	.	.	.	.
4A/	.	4a\	.	.	.	4cc\	.	.	.	.	.	.	.	.	.
2B-/	.	2d/	.	4r	.	2dd\	-a	.	.	.	.	.	.	.	.
.	.	.	.	4dd\	ô	.	.	.	.	.	.	.	.	.	.
*custos:G	*	*	*	*	*	*	*	*	*	*	*	*	*	*	*
2A/	.	4eny/	pi-	4cc\	.	2r	.	00r	.	00r	.	00r	.	00r	.
.	.	4f\	.	4a\	.	.	.	.	.	.	.	.	.	.	.
!LO:LB:g=original	!	!	!	!	!	!	!	!	!	!	!	!	!	!	!
2G/	pi-	2g\	-a	2b-\	.	4r	.	.	.	.	.	.	.	.	.
.	.	.	.	.	.	4dd\	ô	.	.	.	.	.	.	.	.
=45-	=45-	=45-	=45-	=45-	=45-	=45-	=45-	=45-	=45-	=45-	=45-	=45-	=45-	=45-	=45-
2A,</	-a	4r	.	2a\	pi-	4cc\	.	.	.	.	.	.	.	.	.
.	.	4cc\	ô	.	.	4a/	.	.	.	.	.	.	.	.	.
2.G/	ô	4b-\	.	2dd,<\	-a	2.b-/	.	.	.	.	.	.	.	.	.
.	.	4g\	.	.	.	.	.	.	.	.	.	.	.	.	.
.	.	2g\	pi-	2.dd\	Ô	.	.	.	.	.	.	.	.	.	.
4A/	.	.	.	.	.	4cc\	.	.	.	.	.	.	.	.	.
4B-/	.	4f\	.	.	.	4dd\	.	.	.	.	.	.	.	.	.
4c/	.	4e/	.	8cc\L	.	4eeny\	.	.	.	.	.	.	.	.	.
.	.	.	.	8b-\J	.	.	.	.	.	.	.	.	.	.	.
=46-	=46-	=46-	=46-	=46-	=46-	=46-	=46-	=46-	=46-	=46-	=46-	=46-	=46-	=46-	=46-
4d\	.	4d,</	-a	4a\	.	4ff\	.	.	.	.	.	.	.	.	.
4e-X\	.	4g\	o	4g/	.	2gg\	pi-	.	.	.	.	.	.	.	.
2d\	pi-	2a\	pi-	2dd\	pi-	.	.	.	.	.	.	.	.	.	.
!	!	!	!	!	!	!LO:TX:a:t=P:problem=# above	!	!	!	!	!	!	!	!	!
.	.	.	.	.	.	4ff#X\	.	.	.	.	.	.	.	.	.
*	*	*	*	*	*	*custos:dd	*	*	*	*	*	*	*	*	*
2G,</	-a	2g\	-a	2dd,<\	-a	2gg\	-a	2r	.	2r	.	2r	.	2r	.
!	!	!	!	!	!	!LO:LB:g=original	!	!	!	!	!	!	!	!	!
2G/	ô	2.g\	ô	2b-\	ô	2dd\	ô	2g\	Ô	2b-\	Ô	2b-\	Ô	2dd\	Ô
=47-	=47-	=47-	=47-	=47-	=47-	=47-	=47-	=47-	=47-	=47-	=47-	=47-	=47-	=47-	=47-
1c	pi-	.	.	2.g/	pi-	1cc	pi-	4c/	pi-	1g	pi-	1cc	pi-	1ee-X	pi-
.	.	4c/	pi-	.	.	.	.	4d\	.	.	.	.	.	.	.
.	.	2g\	-a	.	.	.	.	4eny\	.	.	.	.	.	.	.
*	*	*	*	*custos:b-	*	*	*	*	*	*	*	*	*	*	*
.	.	.	.	4a\	.	.	.	4f\	.	.	.	.	.	.	.
*	*	*	*ij	*	*	*	*	*	*	*	*	*	*	*	*
2G,</	-a	1.g	ô	2b-,<\	-a	2dd,<\	-a	2g,<\	-a	2.g\	-a	2b-\	-a	2dd\	-a
*	*	*	*	*	*	*	*	*	*	*	*ij	*	*ij	*	*
2g\	ô	.	.	2b-\	ô	2dd\	ô	2G/	ô	.	.	2dd\	Ô	2gg\	ô
.	.	.	.	.	.	.	.	.	.	4d/	Ô	.	.	.	.
=48-	=48-	=48-	=48-	=48-	=48-	=48-	=48-	=48-	=48-	=48-	=48-	=48-	=48-	=48-	=48-
!	!	!	!	!	!	!	!	!LO:N:vis=1.	!	!	!	!	!	!	!
4c/	pi-	.	.	1cc	pi-	1ee-X	pi-	1c	pi-	1g	pi-	1cc	pi-	1gg	pi-
4d\	.	.	.	.	.	.	.	.	.	.	.	.	.	.	.
4eny\	.	2c/	pi-	.	.	.	.	.	.	.	.	.	.	.	.
4f\	.	.	.	.	.	.	.	.	.	.	.	.	.	.	.
2g,<\	-a	1g	-a	2b-,<\	-a	2dd,<\	-a	2G,</	-a	2g,<\	-a	2dd\	-a	2gg\	-a
*	*	*	*Xij	*	*	*	*	*	*	*	*Xij	*	*Xij	*	*
2G/	ô	.	.	2b-\	ô	2dd\	ô	2g\	ô	2g\	Ô	2b-\	O	2dd\	ô
=49-	=49-	=49-	=49-	=49-	=49-	=49-	=49-	=49-	=49-	=49-	=49-	=49-	=49-	=49-	=49-
0c	pi-	1.c	ô	1.g	pi-	4cc\	pi-	0c	pi-	0g	pi-	0cc	pi-	4ee-X\	pi-
.	.	.	.	.	.	4dd\	.	.	.	.	.	.	.	4dd\	.
.	.	.	.	.	.	4ee-X\	.	.	.	.	.	.	.	4cc\	.
.	.	.	.	.	.	4dd\	.	.	.	.	.	.	.	4dd\	.
.	.	.	.	.	.	1cc	.	.	.	.	.	.	.	1ee-X	.
.	.	2g\	pi-	2g/	.	.	.	.	.	.	.	.	.	.	.
=50-	=50-	=50-	=50-	=50-	=50-	=50-	=50-	=50-	=50-	=50-	=50-	=50-	=50-	=50-	=50-
0Gl;;	-a	0dl;;	-a	0ddl;;	-a	0ddl;;	-a.	0gl;;	-a.	0gl;;	-a.	0b-l;;	-a	0ddl;;	-a.
==	==	==	==	==	==	==	==	==	==	==	==	==	==	==	==
*-	*-	*-	*-	*-	*-	*-	*-	*-	*-	*-	*-	*-	*-	*-	*-
!!!system-decoration: [(g1)][(g2)]
!!!RDF**kern: > = above
!!!RDF**kern: < = below
!!!RDF**kern: l = terminal long
!!!ENC: Andrzej Kubiczek
!!!END: 2021-10-12
!!!ENC: Andrzej Kubiczek
!!!END: 2021-10-21
!!!YEC: Copyright 2022 Narodowy Instytut Fryderyka Chopina (https://polishscores.org)
!!!YEM: License CC-BY-4.0 (https://creativecommons.org/licenses/by/4.0)
